!!!COM:	Du Fay, Guillaume
!!!CDT:	~1397/08/05/-1474/11/27
!!!OPR:	Missa Ave regina celorum
!!!ONM:	5
!!!OTL:	Agnus Dei
!!!AGN:	Mass; Agnus Dei
!!!SCT:	Duf1002e
!!!SCA:	Duf1002e
!!!voices:	4
!!!voices-OPR:	4
**kern	**text	**kern	**text	**kern	**text	**kern	**text
*staff4	*staff4	*staff3	*staff3	*staff2	*staff2	*staff1	*staff1
*Ivox	*	*Ivox	*	*Ivox	*	*Ivox	*
*I"Bassus	*	*I"Tenor	*	*I"Contratenor	*	*I"Cantus	*
*I'B	*	*I'T	*	*I'Ct	*	*I'Cn	*
*>[A,B,C]	*>[A,B,C]	*>[A,B,C]	*>[A,B,C]	*>[A,B,C]	*>[A,B,C]	*>[A,B,C]	*>[A,B,C]
*>A	*>A	*>A	*>A	*>A	*>A	*>A	*>A
*clefF4	*	*clefGv2	*	*clefGv2	*	*clefG2	*
*k[]	*	*k[b-]	*	*k[]	*	*k[]	*
*M3/1	*	*M3/1	*	*M3/1	*	*M3/1	*
*met(O)	*	*met(O)	*	*met(O)	*	*met(O)	*
!!section: Agnus Dei I
!!!OMD: Agnus Dei I
=1-	=1-	=1-	=1-	=1-	=1-	=1-	=1-
0F	A-	0.r	.	0f	A-	1.cc	A-
.	.	.	.	.	.	2b\	.
1F	.	.	.	1c	-gnus	1a	.
=2	=2	=2	=2	=2	=2	=2	=2
1E-	.	0.r	.	1c	de-	1g	-gnus
1.D	.	.	.	2.d\	.	2f/	de-
.	.	.	.	.	.	2.a/	.
.	.	.	.	4c\	.	.	.
.	.	.	.	[1A	.	.	.
.	.	.	.	.	.	4g/	.
2C/	.	.	.	.	.	2e/	.
=3	=3	=3	=3	=3	=3	=3	=3
1D	.	0.r	.	1A]	.	1f	.
1.E-	.	.	.	0G	-i,	1.g	.
2C/	.	.	.	.	.	2eni/	.
=4	=4	=4	=4	=4	=4	=4	=4
0.C	-ve,	0c	A-	2r	.	1e	-i,
.	.	.	.	1g	a-	.	.
.	.	.	.	.	.	2r	.
.	.	.	.	2f\	.	2a/	a-
.	.	1c	.	1e	.	2g/	.
.	.	.	.	.	.	2e/	.
=5	=5	=5	=5	=5	=5	=5	=5
0D	a-	1B-	.	2d\	.	2f/	.
.	.	.	.	1f	.	2d/	.
.	.	1.A	.	.	.	2f/	.
.	.	.	.	2e\	.	2g/	.
2D\	.	.	.	1d	.	[1a	.
2Eni\	.	2G/	.	.	.	.	.
=6	=6	=6	=6	=6	=6	=6	=6
1F	.	1A	.	1c	-gnus	1a]	.
0G	.	1.B-	.	2.g\	de-	1d	-gnus
.	.	.	.	4f\	.	.	.
.	.	.	.	1d	.	[1g	de-
.	.	[2G/	.	.	.	.	.
=7	=7	=7	=7	=7	=7	=7	=7
1C	.	2G/]	.	1e	.	2g/]	.
.	.	2A/	.	.	.	2cc\	.
2E\	.	2G/	.	1c	.	2b\	.
2F\	.	1c	.	.	.	2a/	.
1D	.	.	.	1d 1f	.	4b/	.
.	.	.	.	.	.	4a/	.
.	.	2Bni\	.	.	.	4g/	.
.	.	.	.	.	.	4f/	.
=8	=8	=8	=8	=8	=8	=8	=8
0C	-ve,	0.c	-ve,	0G 0g	-i,	1e	-i,
.	.	.	.	.	.	1r	.
1r	.	.	.	1e	qui	1g	qui
=9	=9	=9	=9	=9	=9	=9	=9
2.F\	re-	0.r	.	1c	tol-	2a/	tol-
.	.	.	.	.	.	1cc	.
4G\	.	.	.	.	.	.	.
2A\	.	.	.	1f	.	.	.
2B\	.	.	.	.	.	2b\	.
1c	.	.	.	2.e\	.	1g	.
.	.	.	.	4d\	.	.	.
=10	=10	=10	=10	=10	=10	=10	=10
1F	.	0.c	re-	1f	.	2a/	.
.	.	.	.	.	.	2.a/	.
0A	.	.	.	1F	.	.	.
.	.	.	.	.	.	4g/	.
.	.	.	.	.	.	2f/	.
.	.	.	.	2c\	.	2e/	.
.	.	.	.	2A/	.	2f/	.
=11	=11	=11	=11	=11	=11	=11	=11
0.G	-gi-	0.d	-gi-	0.B	.	1.g	.
.	.	.	.	.	.	2f/	.
.	.	.	.	.	.	1d	.
=12	=12	=12	=12	=12	=12	=12	=12
0.C	-na	0.e	.	1.G	-lis,	1c	-lis,
.	.	.	.	.	.	1r	.
.	.	.	.	1.c	.	.	.
.	.	.	.	.	.	1g	qui
=13	=13	=13	=13	=13	=13	=13	=13
2.E\	ce-	0.e	-na	2r	.	2.g/	tol-
.	.	.	.	1B	qui	.	.
4F\	.	.	.	.	.	4a/	.
2G\	.	.	.	.	.	2b\	.
2A\	.	.	.	2A/	.	2cc\	.
2G\	.	.	.	2.B\	tol-	2b\	.
2E\	.	.	.	.	.	[2g/	.
.	.	.	.	4c\	.	.	.
=14	=14	=14	=14	=14	=14	=14	=14
2G\	.	0d	ce-	2B\	.	2g/]	.
2F\	.	.	.	2A/	.	2a/	.
1G	.	.	.	2G/	.	2b\	.
.	.	.	.	2.B\	.	1g	.
1D	.	1d	.	.	.	.	.
.	.	.	.	4c\	.	.	.
.	.	.	.	4B/	.	2f/	.
.	.	.	.	4A/	.	.	.
=15	=15	=15	=15	=15	=15	=15	=15
1C	-lo-	1e	.	1c	.	1g	-lis,
1D	.	0f	-lo-	1A	.	2r	.
.	.	.	.	.	.	2.dd\	pec-
1BB	.	.	.	1d	.	.	.
.	.	.	.	.	.	4cc\	.
.	.	.	.	.	.	2dd\	.
=16	=16	=16	=16	=16	=16	=16	=16
1C	.	1e	.	1c	-lis	2ee\	-ca-
.	.	.	.	.	.	1cc	.
0G	.	0d	.	1r	.	.	.
.	.	.	.	.	.	2b\	.
.	.	.	.	[1g	pec-	2b\	.
.	.	.	.	.	.	2a/	.
=17	=17	=17	=17	=17	=17	=17	=17
0.C	-rum.	[0.c	-rum.	1g]	.	1cc	-ta,
.	.	.	.	2e\	.	1r	.
.	.	.	.	2f\	.	.	.
.	.	.	.	1g	.	[1cc	pec-
=18	=18	=18	=18	=18	=18	=18	=18
0.r	.	0.c]	.	2a\	-ca-	2cc\]	.
.	.	.	.	2g\	.	2b\	.
.	.	.	.	[0e	.	2a/	.
.	.	.	.	.	.	2g/	.
.	.	.	.	.	.	[1g	-ca-
=19	=19	=19	=19	=19	=19	=19	=19
1c	A-	0.r	.	1e]	.	2g/]	.
.	.	.	.	.	.	2a/	.
2B\	.	.	.	2d\	.	2g/	.
2c\	.	.	.	2e\	.	1a	.
1d	.	.	.	2.f\	.	.	.
.	.	.	.	.	.	2b\	.
.	.	.	.	4g\	.	.	.
=20	=20	=20	=20	=20	=20	=20	=20
1c	.	0.r	.	1e	.	2cc\	.
.	.	.	.	.	.	2.a/	.
1B	.	.	.	2d\	.	.	.
.	.	.	.	.	.	4g/	.
.	.	.	.	1d	.	1g	.
1A	.	.	.	.	.	.	.
.	.	.	.	2c\	.	2f#i/	.
=21	=21	=21	=21	=21	=21	=21	=21
0G	.	0.r	.	1d	-ta	1g	-ta
.	.	.	.	1B	mun-	2.d/	mun-
.	.	.	.	.	.	4e/	.
1A	.	.	.	1c	.	2.f/	.
.	.	.	.	.	.	4g/	.
=22	=22	=22	=22	=22	=22	=22	=22
2G\	.	0.r	.	2B\	.	2e/	.
2F\	.	.	.	2.A/	.	2.d/	.
2G\	.	.	.	.	.	.	.
.	.	.	.	4G/	.	4c/	.
2E\	.	.	.	1G	.	1c	.
1D	.	.	.	.	.	.	.
.	.	.	.	2F/	.	2B/	.
=23	=23	=23	=23	=23	=23	=23	=23
0.C	-ve,	0c	A-	1G	-di,	1c	-di,
.	.	.	.	1r	.	2r	.
.	.	.	.	.	.	1g	pec-
.	.	1c	.	1e	pec-	.	.
.	.	.	.	.	.	2e/	.
=24	=24	=24	=24	=24	=24	=24	=24
2D\	a-	1B-	.	1d	-ca-	2f/	-ca-
2E\	.	.	.	.	.	2g/	.
0F	.	0A	.	2c\	.	1.a	.
.	.	.	.	1f	.	.	.
.	.	.	.	2e\	.	2b\	.
=25	=25	=25	=25	=25	=25	=25	=25
1G	.	1B-	.	1d	-ta	0g	-ta
0C	.	0G	.	1.e	mun-	.	.
.	.	.	.	.	.	[1cc	mun-
.	.	.	.	[2c\	.	.	.
=26	=26	=26	=26	=26	=26	=26	=26
1F	.	1.A	.	2c\]	.	2cc\]	.
.	.	.	.	2f\	.	1cc	.
1A	.	.	.	2e\	.	.	.
.	.	2c\	.	2f\	.	2a/	.
1G	.	2.Bni\	.	2g\	.	1b	.
.	.	.	.	2e\	.	.	.
.	.	4A/	.	.	.	.	.
=27	=27	=27	=27	=27	=27	=27	=27
0.F	-ve,	0.c	-ve,	1f	-di,	1a	.
.	.	.	.	2r	.	2b\	.
.	.	.	.	1A	mun-	2cc\	.
.	.	.	.	.	.	4dd\	.
.	.	.	.	.	.	4cc\	.
.	.	.	.	2B\	.	4b\	.
.	.	.	.	.	.	4a\	.
=28	=28	=28	=28	=28	=28	=28	=28
1E	a-	0.r	.	2c\	.	1g	.
.	.	.	.	4B\	.	.	.
.	.	.	.	4c\	.	.	.
0D	.	.	.	2d\	.	1a	.
.	.	.	.	2A/	.	.	.
.	.	.	.	2.B\	.	1f	.
.	.	.	.	4A/	.	.	.
=29	=29	=29	=29	=29	=29	=29	=29
0C	-ve,	0.c	do-	1c	-di,	1e	-di,
.	.	.	.	1G	.	1r	.
1r	.	.	.	2r	.	1cc	mun-
.	.	.	.	[2g\	mun-	.	.
=30	=30	=30	=30	=30	=30	=30	=30
1.G	do-	0.d	-mi-	1.g]	.	1.b	.
2A\	.	.	.	2f\	.	2cc\	.
1B	.	.	.	1d	-di,	1dd	.
=31	=31	=31	=31	=31	=31	=31	=31
1c	.	0.e	.	2r	.	1g	.
.	.	.	.	1.c	mun	.	.
1.A	-mi-	.	.	.	.	2a/	.
.	.	.	.	.	.	1cc	.
.	.	.	.	2A/	.	.	.
2G\	.	.	.	2B\	.	2b\	.
=32	=32	=32	=32	=32	=32	=32	=32
1A	-na	0.e;	-na	1c	di,	1a	-di,
1E;	.	.	.	1B;	.	1g;	.
1r	.	.	.	1r	.	1r	.
=33	=33	=33	=33	=33	=33	=33	=33
0C	an-	0e	an-	0g	mi-	0cc	mi-
[1G	-ge-	[1d	-ge-	[1g	-se-	[1b	-se-
=34	=34	=34	=34	=34	=34	=34	=34
2G\]	.	1d]	.	1g]	.	1b]	.
2F\	.	.	.	.	.	.	.
0E	.	0e	.	0c	-re-	0g	-re-
=35	=35	=35	=35	=35	=35	=35	=35
0D	-lo-	0f	-lo-	0d	.	1a	-re
.	.	.	.	.	.	1b	.
[1C	.	[1e	.	1G	-re	[1cc	no-
=36	=36	=36	=36	=36	=36	=36	=36
1C]	.	1e]	.	1.g	no-	1cc]	.
0BB	.	0d	.	.	.	0dd	.
.	.	.	.	1f	.	.	.
.	.	.	.	2g\	.	.	.
=37	=37	=37	=37	=37	=37	=37	=37
0.Cl	-rum.	0.cl	-rum.	2e\	.	1.ee	.
.	.	.	.	2f\	.	.	.
.	.	.	.	0gl	-bis.	.	.
.	.	.	.	.	.	2cc\	.
.	.	.	.	.	.	1ccl	-bis.
!!LO:LB:i:g=z
=38||	=38||	=38||	=38||	=38||	=38||	=38||	=38||
*>B	*>B	*>B	*>B	*>B	*>B	*>B	*>B
*clefF4	*	*clefGv2	*	*clefGv2	*	*clefG2	*
*k[]	*	*k[b-]	*	*k[]	*	*k[]	*
*M2/1	*	*M3/1	*	*M2/1	*	*M2/1	*
*met(C)	*	*met(C)	*	*met(C)	*	*met(C)	*
!!section: Agnus Dei II
!!!OMD: Agnus Dei II
0r	.	0r	.	[0c	A-	1.cc	A-
.	.	.	.	.	.	2b\	.
=39.	=39	=39	=39	=39.	=39	=39.	=39
0r	.	0r	.	0c_	.	2a/	.
.	.	.	.	.	.	2g/	.
.	.	.	.	.	.	[1g	.
=40	=40	=40	=40	=40	=40	=40	=40
0r	.	0r	.	0c_	.	1g]	.
.	.	.	.	.	.	1a	.
=41.	=41	=41	=41	=41.	=41	=41.	=41
0r	.	0r	.	0c]	.	1g	.
.	.	.	.	.	.	1e	.
=42	=42	=42	=42	=42	=42	=42	=42
0r	.	0r	.	1A	.	1f	.
.	.	.	.	1G	.	[1g	.
=43.	=43	=43	=43	=43.	=43	=43.	=43
0r	.	0r	.	0c	.	2g/]	.
.	.	.	.	.	.	2f/	.
.	.	.	.	.	.	2e/	.
.	.	.	.	.	.	2c/	.
=44	=44	=44	=44	=44	=44	=44	=44
0r	.	0r	.	2B\	.	1d	-gnus
.	.	.	.	2A/	.	.	.
.	.	.	.	[1c	-gnus	1e	.
=45.	=45	=45	=45	=45.	=45	=45.	=45
0r	.	0r	.	2c\]	.	1c	.
.	.	.	.	2d\	.	.	.
.	.	.	.	[1e	.	1r	.
=46	=46	=46	=46	=46	=46	=46	=46
0r	.	0r	.	2e\]	.	1cc	de-
.	.	.	.	2f\	.	.	.
.	.	.	.	1g	.	1b	.
=47.	=47	=47	=47	=47.	=47	=47.	=47
0r	.	0r	.	1c	de-	1ee	.
.	.	.	.	[1f	.	[1dd	.
=48	=48	=48	=48	=48	=48	=48	=48
0r	.	0r	.	1f]	.	2dd\]	.
.	.	.	.	.	.	2cc\	.
.	.	.	.	1e	.	[1cc	.
=49.	=49	=49	=49	=49.	=49	=49.	=49
0r	.	0r	.	0d	.	1cc]	.
.	.	.	.	.	.	2b\	.
.	.	.	.	.	.	2a/	.
=50	=50	=50	=50	=50	=50	=50	=50
0r	.	0r	.	[0c	-i,	1cc	-i,
.	.	.	.	.	.	2g/	a-
.	.	.	.	.	.	2a/	.
=51.	=51	=51	=51	=51.	=51	=51.	=51
0r	.	0r	.	0c]	.	2g/	.
.	.	.	.	.	.	1cc	.
.	.	.	.	.	.	2a/	.
=52	=52	=52	=52	=52	=52	=52	=52
0r	.	0r	.	1G	a-	1b	.
.	.	.	.	1B	.	[1g	.
=53.	=53	=53	=53	=53.	=53	=53.	=53
0r	.	0r	.	0A	.	2g/]	.
.	.	.	.	.	.	2f#i/	.
.	.	.	.	.	.	2f#i/	.
.	.	.	.	.	.	2e/	.
=54	=54	=54	=54	=54	=54	=54	=54
0r	.	0r	.	0G	-gnus	0g	-gnus
=55.	=55	=55	=55	=55.	=55	=55.	=55
0r	.	0r	.	0r	.	1d	de-
.	.	.	.	.	.	[1g	.
=56	=56	=56	=56	=56	=56	=56	=56
0r	.	0r	.	1c	sal-	2g/]	.
.	.	.	.	.	.	2e/	.
.	.	.	.	1d	.	1f	.
=57.	=57	=57	=57	=57.	=57	=57.	=57
1C	Sal-	0r	.	1e	.	1g	-i,
1D	.	.	.	1f	.	1r	.
=58	=58	=58	=58	=58	=58	=58	=58
1E	.	0r	.	2e\	.	0r	.
.	.	.	.	2c\	.	.	.
1F	.	.	.	1d	.	.	.
=59.	=59	=59	=59	=59.	=59	=59.	=59
2E\	.	0r	.	1e	.	0r	.
2C/	.	.	.	.	.	.	.
1D	.	.	.	2d\	.	.	.
.	.	.	.	2f\	.	.	.
=60	=60	=60	=60	=60	=60	=60	=60
2E\	.	0r	.	2g\	.	0r	.
2G\	.	.	.	1e	.	.	.
1F	.	.	.	.	.	.	.
.	.	.	.	2d\	.	.	.
=61.	=61	=61	=61	=61.	=61	=61.	=61
0E	-ve,	0r	.	1e	-ve,	0r	.
.	.	.	.	1r	.	.	.
=62	=62	=62	=62	=62	=62	=62	=62
0r	.	0r	.	1.g	ra-	0r	.
.	.	.	.	2f\	.	.	.
=63.	=63	=63	=63	=63.	=63	=63.	=63
1.G	ra-	0r	.	1e	-dix	0r	.
.	.	.	.	1d	.	.	.
2F\	.	.	.	.	.	.	.
=64	=64	=64	=64	=64	=64	=64	=64
1E	-dix	0r	.	1c	san-	0r	.
1D	.	.	.	1B	.	.	.
=65.	=65	=65	=65	=65.	=65	=65.	=65
1C	san-	0r	.	1e	.	0r	.
1BB	.	.	.	[1d	.	.	.
=66	=66	=66	=66	=66	=66	=66	=66
0E	.	0r	.	2d\]	.	0r	.
.	.	.	.	2c\	.	.	.
.	.	.	.	[1c	.	.	.
=67.	=67	=67	=67	=67.	=67	=67.	=67
0D	.	0r	.	1c]	.	0r	.
.	.	.	.	1B	.	.	.
=68	=68	=68	=68	=68	=68	=68	=68
0C	-cta,	0r	.	0c	-cta,	0r	.
=69.	=69	=69	=69	=69.	=69	=69.	=69
0F	.	0r	.	1r	.	0r	.
.	.	.	.	1c	ex	.	.
=70	=70	=70	=70	=70	=70	=70	=70
1r	.	0r	.	1A	.	0r	.
[1G	ex	.	.	2G/	.	.	.
.	.	.	.	[2B-\	.	.	.
=71.	=71	=71	=71	=71.	=71	=71.	=71
2G\]	.	0r	.	2B-\]	.	0r	.
2E\	.	.	.	2c\	.	.	.
1F	.	.	.	1A	.	.	.
=72	=72	=72	=72	=72	=72	=72	=72
1G	qua	0r	.	1G	qua	0r	.
2C/	mun-	.	.	[1G	mun-	.	.
[2E\	.	.	.	.	.	.	.
=73.	=73	=73	=73	=73.	=73	=73.	=73
2E\]	.	0r	.	2G/]	.	0r	.
2F\	.	.	.	1A	.	.	.
1D	.	.	.	.	.	.	.
.	.	.	.	2B\	.	.	.
=74	=74	=74	=74	=74	=74	=74	=74
1C	-do,	0r	.	1c	.	0r	.
2r	.	.	.	1e	.	.	.
2c\	mun-	.	.	.	.	.	.
=75.	=75	=75	=75	=75.	=75	=75.	=75
2d\	.	0r	.	0d	.	0r	.
1B	.	.	.	.	.	.	.
2A\	.	.	.	.	.	.	.
=76	=76	=76	=76	=76	=76	=76	=76
1c	-do	0r	.	2c\	-do	0r	.
.	.	.	.	2r	.	.	.
1A	lux	.	.	1c	lux	.	.
=77.	=77	=77	=77	=77.	=77	=77.	=77
0G	est	0r	.	1d	est	0r	.
.	.	.	.	1e	.	.	.
=78	=78	=78	=78	=78	=78	=78	=78
1F	or-	0r	.	1f	or-	0r	.
1A	.	.	.	2e\	.	.	.
.	.	.	.	2f\	.	.	.
=79.	=79	=79	=79	=79.	=79	=79.	=79
1G	.	0r	.	2g\	.	0r	.
.	.	.	.	1e	.	.	.
1C	.	.	.	.	.	.	.
.	.	.	.	2c\	.	.	.
=80	=80	=80	=80	=80	=80	=80	=80
2BB/	.	0r	.	2d\	.	0r	.
1C	.	.	.	2e\	.	.	.
.	.	.	.	1c	.	.	.
2E\	.	.	.	.	.	.	.
=81.	=81	=81	=81	=81.	=81	=81.	=81
1D	.	0r	.	2B\	.	0r	.
.	.	.	.	1A	.	.	.
2F\	.	.	.	.	.	.	.
2E\	.	.	.	2G/	.	.	.
=82	=82	=82	=82	=82	=82	=82	=82
2C/	.	0r	.	2c\	.	0r	.
1E	.	.	.	2B\	.	.	.
.	.	.	.	2c\	.	.	.
2F\	.	.	.	[2d\	.	.	.
=83.	=83	=83	=83	=83.	=83	=83.	=83
1G	.	0r	.	2d\]	.	0r	.
.	.	.	.	2B\	.	.	.
2A\	.	.	.	2c\	.	.	.
2B\	.	.	.	2d\	.	.	.
=84	=84	=84	=84	=84	=84	=84	=84
2c\	.	0r	.	1e	.	0r	.
2.A\	.	.	.	.	.	.	.
.	.	.	.	2f\	.	.	.
4G\	.	.	.	.	.	.	.
2F\	.	.	.	2d\	.	.	.
=85.	=85	=85	=85	=85.	=85	=85.	=85
2E\	.	0r	.	2e\	.	0r	.
2r	.	.	.	2c\	.	.	.
2F\	.	.	.	2r	.	.	.
2E\	.	.	.	2G/	.	.	.
=86	=86	=86	=86	=86	=86	=86	=86
2F\	.	0r	.	2A/	.	0r	.
2G\	.	.	.	2B\	.	.	.
2A\	.	.	.	2c\	.	.	.
2F\	.	.	.	2d\	.	.	.
=87.	=87	=87	=87	=87.	=87	=87.	=87
2G\	.	0r	.	2e\	.	0r	.
2E\	.	.	.	1c	.	.	.
1D	.	.	.	.	.	.	.
.	.	.	.	2B\	.	.	.
=88	=88	=88	=88	=88	=88	=88	=88
[0C	-ta.	0r	.	0c	-ta.	0r	.
=89.	=89	=89	=89	=89.	=89	=89.	=89
0C]	.	0r	.	0r	.	1g	Qui
.	.	.	.	.	.	1a	.
=90	=90	=90	=90	=90	=90	=90	=90
0r	.	0r	.	0c	Qui	1g	tol-
.	.	.	.	.	.	1cc	.
=91.	=91	=91	=91	=91.	=91	=91.	=91
0r	.	0r	.	0d	.	1b	.
.	.	.	.	.	.	[1a	.
=92	=92	=92	=92	=92	=92	=92	=92
0r	.	0r	.	0e	tol-	2a/]	.
.	.	.	.	.	.	2g/	.
.	.	.	.	.	.	[1g	-lis
=93.	=93	=93	=93	=93.	=93	=93.	=93
0r	.	0r	.	0c	-lis	1g]	.
.	.	.	.	.	.	1cc	pec-
=94	=94	=94	=94	=94	=94	=94	=94
0r	.	0r	.	0d	pec-	1a	.
.	.	.	.	.	.	1b	.
=95.	=95	=95	=95	=95.	=95	=95.	=95
0r	.	0r	.	1c	.	0cc	.
.	.	.	.	1A	.	.	.
=96	=96	=96	=96	=96	=96	=96	=96
0r	.	0r	.	0B	-ca-	1.dd	-ca-
.	.	.	.	.	.	2cc\	.
=97.	=97	=97	=97	=97.	=97	=97.	=97
0r	.	0r	.	[0c	-ta	2a/	.
.	.	.	.	.	.	2g/	.
.	.	.	.	.	.	1g	-ta
=98	=98	=98	=98	=98	=98	=98	=98
0r	.	0r	.	0c]	.	1r	.
.	.	.	.	.	.	1e	mun-
=99.	=99	=99	=99	=99.	=99	=99.	=99
0r	.	0r	.	1.G	mun-	2d/	.
.	.	.	.	.	.	1g	.
.	.	.	.	2A/	.	2f/	.
=100	=100	=100	=100	=100	=100	=100	=100
0r	.	0r	.	1B	.	1d	.
.	.	.	.	[1c	.	1e	.
=101.	=101	=101	=101	=101.	=101	=101.	=101
0r	.	0r	.	1c]	.	0c	.
.	.	.	.	1g	.	.	.
=102	=102	=102	=102	=102	=102	=102	=102
0r	.	0r	.	1e	.	1cc	.
.	.	.	.	1f	.	1dd	.
=103.	=103	=103	=103	=103.	=103	=103.	=103
0r	.	0r	.	0g	.	1.b	.
.	.	.	.	.	.	2a/	.
=104	=104	=104	=104	=104	=104	=104	=104
0r	.	0r	.	[0c	-di,	0cc	-di,
=105.	=105	=105	=105	=105.	=105	=105.	=105
0r	.	0r	.	0c]	.	0r	.
=106	=106	=106	=106	=106	=106	=106	=106
0c	Mi-	0r	.	0r	.	0ee-	mi-
=107.	=107	=107	=107	=107.	=107	=107.	=107
0B	-se-	0r	.	0r	.	0dd	-se-
=108	=108	=108	=108	=108	=108	=108	=108
0c	-re-	0r	.	0e-	mi-	0cc	-re-
=109.	=109	=109	=109	=109.	=109	=109.	=109
0G	-re,	0r	.	0d	-se-	0b	-re,
=110	=110	=110	=110	=110	=110	=110	=110
0A-	mi-	0r	.	0c	-re-	0cc	mi
=111.	=111	=111	=111	=111.	=111	=111.	=111
0G	-se-	0r	.	0B	-re,	0dd	se-
=112	=112	=112	=112	=112	=112	=112	=112
0E-	-re-	0r	.	0c	mi-	0g	-re-
=113.	=113	=113	=113	=113.	=113	=113.	=113
0D	-re,	0r	.	0d	-se-	0f#	-re,
=114	=114	=114	=114	=114	=114	=114	=114
3%2.E-iV	mi-	0r	.	0G	-re-	0b-	mi-
3F\	.	.	.	.	.	.	.
3%2GZ	.	.	.	.	.	.	.
=115.	=115	=115	=115	=115.	=115	=115.	=115
0D	-se-	0r	.	0F#	-re,	0a	-se-
=116	=116	=116	=116	=116	=116	=116	=116
0G	-re-	0r	.	1B-	mi-	1g	.
.	.	.	.	1B-	-se-	[1g	-re-
=117.	=117	=117	=117	=117.	=117	=117.	=117
0D	-re,	0r	.	0A	-re-	1g]	.
.	.	.	.	.	.	1f#i	.
=118	=118	=118	=118	=118	=118	=118	=118
0r	.	0r	.	0G	-re,	0g	-re,
=119.	=119	=119	=119	=119.	=119	=119.	=119
0G	mi-	0r	.	1r	.	0b-i	mi-
.	.	.	.	[1d	mi-	.	.
=120	=120	=120	=120	=120	=120	=120	=120
2F\	.	0r	.	1d]	.	1a	.
2E-i\	.	.	.	.	.	.	.
[1C	-se-	.	.	[1e-	-se-	[1g	-se-
=121.	=121	=121	=121	=121.	=121	=121.	=121
2C/]	.	0r	.	1e-]	.	1g]	.
1.BB	.	.	.	.	.	.	.
.	.	.	.	1d	.	1f	.
=122	=122	=122	=122	=122	=122	=122	=122
1C	-re-	0r	.	0c	-re-	0e-	-re-
2.E-i\	.	.	.	.	.	.	.
4F\	.	.	.	.	.	.	.
=123.	=123	=123	=123	=123.	=123	=123.	=123
0Gl;	-re	0r	.	0Bl;	-re	0dl;	-re
=124	=124	=124	=124	=124	=124	=124	=124
[0Cl	no-	0r	.	1.c	no-	[0e-i	no-
.	.	.	.	2B\	.	.	.
=125.	=125	=125	=125	=125.	=125	=125.	=125
0C_	-bis.	0r	.	[0Gl	-bis.	1e-yi]	.
.	.	.	.	.	.	1c	.
=126	=126	=126	=126	=126	=126	=126	=126
0C]	.	0r	.	0G]	.	0cl	-bis.
!!LO:LB:i:g=z
=127||	=127||	=127||	=127||	=127||	=127||	=127||	=127||
*>C	*>C	*>C	*>C	*>C	*>C	*>C	*>C
*clefF4	*	*clefGv2	*	*clefGv2	*	*clefG2	*
*k[]	*	*k[b-]	*	*k[]	*	*k[]	*
*M2/1	*	*M2/1	*	*M2/1	*	*M2/1	*
*met(C)	*	*met(C)	*	*met(C)	*	*met(C)	*
!!section: Agnus Dei III
!!!OMD: Agnus Dei III
[0c	Gau-	0c	Gau-	0c	A-	[0cc	A-
=128.	=128	=128.	=128	=128.	=128	=128.	=128
0c]	.	[0e	-de	0A	.	0cc]	.
=129	=129	=129	=129	=129	=129	=129	=129
0G	-de,	1e]	.	0B	.	0b	.
.	.	1g	.	.	.	.	.
=130.	=130	=130.	=130	=130.	=130	=130.	=130
0A	.	1.f	.	0c	.	1a	.
.	.	.	.	.	.	1cc	.
.	.	2e\	.	.	.	.	.
=131	=131	=131	=131	=131	=131	=131	=131
0G	.	[0g	.	0d	.	1.b	.
.	.	.	.	.	.	2a/	.
=132.	=132	=132.	=132	=132.	=132	=132.	=132
1E	glo-	0g]	.	0e	.	1b	.
1C	.	.	.	.	.	1cc	.
=133	=133	=133	=133	=133	=133	=133	=133
0D	.	0f	glo-	0d	-gnus	0a	.
=134.	=134	=134.	=134	=134.	=134	=134.	=134
1E	.	1e	.	0r	.	1g	.
1F	-ri-	[1d	-ri-	.	.	1a	.
=135	=135	=135	=135	=135	=135	=135	=135
1G	-o-	1d]	.	1g	de-	1b	.
1A	.	1c	.	2f\	.	1cc	.
.	.	.	.	2e\	.	.	.
=136.	=136	=136.	=136	=136.	=136	=136.	=136
0G	.	0d	-o-	[0g	.	2b\	.
.	.	.	.	.	.	1b	.
.	.	.	.	.	.	2a/	.
=137	=137	=137	=137	=137	=137	=137	=137
[0C	-sa,	0c	-sa,	0g]	.	1.cc	-gnus
.	.	.	.	.	.	2b\	.
=138.	=138	=138.	=138	=138.	=138	=138.	=138
0C]	.	0r	.	1e	.	0g	.
.	.	.	.	1g	.	.	.
=139	=139	=139	=139	=139	=139	=139	=139
0F	.	0c	su-	1f	.	1r	.
.	.	.	.	2e\	.	[1a	de-
.	.	.	.	2d\	.	.	.
=140.	=140	=140.	=140	=140.	=140	=140.	=140
1r	.	0A	.	1c	.	2a/]	.
.	.	.	.	.	.	2b\	.
1F	su-	.	.	1f	.	1cc	.
=141	=141	=141	=141	=141	=141	=141	=141
1G	.	1Bni	.	1d	.	1b	.
1E	.	1c	.	1e	.	1g	.
=142.	=142	=142.	=142	=142.	=142	=142.	=142
0F	.	0A	.	[0c	-i,	3%4aV	.
.	.	.	.	.	.	3g/	.
.	.	.	.	.	.	3f/Z	.
=143	=143	=143	=143	=143	=143	=143	=143
0C	-per	0G	-per	0c]	.	1e	-i,
.	.	.	.	.	.	1r	.
=144.	=144	=144.	=144	=144.	=144	=144.	=144
1r	.	0G	om-	0r	.	1d	qui
1E	om-	.	.	.	.	1g	.
=145	=145	=145	=145	=145	=145	=145	=145
1F	.	0A	.	0r	.	1.f	tol-
[1D	.	.	.	.	.	.	.
.	.	.	.	.	.	2g/	.
=146.	=146	=146.	=146	=146.	=146	=146.	=146
1D]	.	2A/	.	0r	.	1a	.
.	.	2Bni\	.	.	.	.	.
1E	.	[1c	.	.	.	1g	.
=147	=147	=147	=147	=147	=147	=147	=147
1.C	.	2c\]	.	0r	.	2e/	.
.	.	2d\	.	.	.	2f/	.
.	.	2e\	.	.	.	[1g	.
2BB/	.	2f\	.	.	.	.	.
=148.	=148	=148.	=148	=148.	=148	=148.	=148
1C	.	1e	.	0r	.	1g]	.
1AA	.	1c	.	.	.	1a	.
=149	=149	=149	=149	=149	=149	=149	=149
0BB	.	0d	.	0r	.	2d/	.
.	.	.	.	.	.	1f	.
.	.	.	.	.	.	2g/	.
=150.	=150	=150.	=150	=150.	=150	=150.	=150
0C	-nes	1c	-nes	0G	qui	0e	-lis,
.	.	1r	.	.	.	.	.
=151	=151	=151	=151	=151	=151	=151	=151
0r	.	1c	spe-	1A	tol-	0r	.
.	.	1d	.	1G	.	.	.
=152.	=152	=152.	=152	=152.	=152	=152.	=152
1C	spe-	1e	-ci-	1c	.	0r	.
1D	.	1f	.	2A/	.	.	.
.	.	.	.	[2B\	.	.	.
=153	=153	=153	=153	=153	=153	=153	=153
1E	-ci-	1e	-o-	2B\]	.	0r	.
.	.	.	.	2c\	.	.	.
1F	.	[1d	.	1A	.	.	.
=154.	=154	=154.	=154	=154.	=154	=154.	=154
1G	-o-	2d\]	.	1B	.	0r	.
.	.	2c\	.	.	.	.	.
1E	.	[1c	.	[1G	.	.	.
=155	=155	=155	=155	=155	=155	=155	=155
0D	.	1c]	.	1G]	.	0r	.
.	.	1Bni	.	1F	.	.	.
=156.	=156	=156.	=156	=156.	=156	=156.	=156
0C	-sa.	0c	-sa.	0G	-lis	0r	.
=157	=157	=157	=157	=157	=157	=157	=157
1.F	Va-	0r	.	1A	pec-	0cc	pec-
.	.	.	.	[1A	-ca-	.	.
2E\	.	.	.	.	.	.	.
=158.	=158	=158.	=158	=158.	=158	=158.	=158
1F	.	0r	.	1A]	.	1a	.
1G	.	.	.	1G	.	1b	.
=159	=159	=159	=159	=159	=159	=159	=159
*	*	*M3/1	*	*M3/1	*	*	*
*	*	*met(3)	*	*met(3)	*	*	*
0A	.	3%2.c	Va-	3%4F	.	0cc	-ca-
.	.	3d\	.	.	.	.	.
.	.	3%2e	.	[3%2c	.	.	.
=160.	=160	=160.	=160	=160.	=160	=160.	=160
0F	.	3%2f	.	3%2c]	.	0a	.
.	.	3%2.d	.	3%2A	.	.	.
.	.	.	.	3%2B	.	.	.
.	.	3c\	.	.	.	.	.
=161	=161	=161	=161	=161	=161	=161	=161
*	*	*	*	*	*	*M3/1	*
*	*	*	*	*	*	*met(3)	*
0C	-le,	3%4e	-le,	3%2.c	.	3%4g	.
.	.	.	.	3d\	.	.	.
.	.	[3%2g	val-	3%2e	.	3%2cc	.
=162.	=162	=162.	=162	=162.	=162	=162.	=162
0D	.	3%2g]	.	3%2f	.	3%4b	.
.	.	3%4f	.	3%4d	.	.	.
.	.	.	.	.	.	3%2a	.
=163	=163	=163	=163	=163	=163	=163	=163
0C	.	0e	-de	3%2e	.	3%2.cc	.
.	.	.	.	3%2c	.	.	.
.	.	.	.	.	.	3b\	.
.	.	.	.	[3%2g	.	3%2cc	.
=164.	=164	=164.	=164	=164.	=164	=164.	=164
0G	val-	0d	.	3%2g]	.	3%2dd	.
.	.	.	.	3%2f	.	3%2.b	.
.	.	.	.	3%2g	.	.	.
.	.	.	.	.	.	3a/	.
=165	=165	=165	=165	=165	=165	=165	=165
*M3/3%2	*	*	*	*	*	*	*
*met(3)	*	*	*	*	*	*	*
[3%4.C	-de	[0c	de-	0e	.	3%2.cc	.
.	.	.	.	.	.	3b\	.
.	.	.	.	.	.	3%2g	.
=166.	=166	=166.	=166	=166.	=166	=166.	=166
3%4.C]	.	3%2c]	.	0c	.	3%2a	.
.	.	3%4e	.	.	.	3%2g	.
.	.	.	.	.	.	3%2e	.
=167	=167	=167	=167	=167	=167	=167	=167
3%4D	de-	3%4d	-co-	3%2A	.	3%4f	.
.	.	.	.	3%2B-	.	.	.
[3%2AA	-co-	[3%2c	.	3%2c	.	[3%2e	.
=168.	=168	=168.	=168	=168.	=168	=168.	=168
3%2AA]	.	3%2c]	.	3%2.A	.	3%2e]	.
3%4BB-	.	3%4d	.	.	.	3%4d	.
.	.	.	.	3F/	.	.	.
.	.	.	.	3%2G	.	.	.
=169	=169	=169	=169	=169	=169	=169	=169
0AAl;	-ra,	0el;	-ra,	0Al;	-ta,	0cl;	-ta
=170.	=170	=170.	=170	=170.	=170	=170.	=170
3%4A	et	3%4e	et	3%4c	mun-	3%4cc	mun-
[3%2B-	pro	[3%2d	pro	[3%2G	.	[3%2dd	.
=171	=171	=171	=171	=171	=171	=171	=171
3%2B-]	.	3%2d]	.	3%2G]	.	3%2dd]	.
3%4G	.	3%4e	.	3%2.B	.	3%4b	.
.	.	.	.	3A/	.	.	.
=172.	=172	=172.	=172	=172.	=172	=172.	=172
3%4F	no-	3%4f	no-	3%2c	.	3%4a	.
.	.	.	.	3%2d	.	.	.
[3%2c	.	3%2e	.	[3%2e	.	3%2g	.
=173	=173	=173	=173	=173	=173	=173	=173
3%2c]	.	3%2c	.	3%2e]	.	3%2a	.
3%4G	.	3%4d	.	3%2d	.	3%4b	.
.	.	.	.	3%2g	.	.	.
=174.	=174	=174.	=174	=174.	=174	=174.	=174
0A	-bis	3%4c	-bis	3%2f	.	3%2a	.
.	.	.	.	3%2.e	.	3%2.cc	.
.	.	3%2r	.	.	.	.	.
.	.	.	.	3d\	.	3b\	.
=175	=175	=175	=175	=175	=175	=175	=175
3%4F	sem-	3%2r	.	0f	-di,	3%4a	.
.	.	3%4d	sem-	.	.	.	.
3%2G	.	.	.	.	.	3%2g	.
=176.	=176	=176.	=176	=176.	=176	=176.	=176
3%4A	-per	3%4c	-per	0r	.	3%2e	.
.	.	.	.	.	.	3%2f	.
3%2G	.	[3%2B-	.	.	.	[3%2g	.
=177	=177	=177	=177	=177	=177	=177	=177
3%2E	.	3%2B-]	.	0r	.	3%2g]	.
3%4F	Chri-	3%4A	Chri-	.	.	3%4a	.
=178.	=178	=178.	=178	=178.	=178	=178.	=178
*	*	*	*	*M2/1	*	*	*
*	*	*	*	*met(C)	*	*	*
3%4G	.	3%2B-	.	0g	mun-	3%2g	.
.	.	3%2G	.	.	.	3%2b	.
3%2E	.	[3%2c	.	.	.	3%2cc	.
=179	=179	=179	=179	=179	=179	=179	=179
3%2F	.	3%2c]	.	0f	.	3%2a	.
3%4D	.	3%2d	.	.	.	3b\	.
.	.	.	.	.	.	3a/	.
.	.	3%2Bni	.	.	.	3g/	.
.	.	.	.	.	.	3f/	.
=180.	=180	=180.	=180	=180.	=180	=180.	=180
3%4.C	-stum	3%4.c	-stum	0g	-di,	3%4.e	-di,
=181	=181	=181	=181	=181	=181	=181	=181
*	*	*	*	*	*	*M2/1	*
*	*	*	*	*	*	*met(C)	*
3%4F	ex-	0r	.	1.a	do-	0r	.
3%2G	.	.	.	.	.	.	.
.	.	.	.	2g\	.	.	.
=182.	=182	=182.	=182	=182.	=182	=182.	=182
3%4.A	-o-	3%4.c	ex-	1e	.	0cc	do-
.	.	.	.	1f	.	.	.
=183	=183	=183	=183	=183	=183	=183	=183
3%4G	.	3%4.d	.	0g	-na	0b	-na
3%2F	.	.	.	.	.	.	.
=184.	=184	=184.	=184	=184.	=184	=184.	=184
3%4.E	.	3%4.e	.	0g	no-	0cc	no-
=185	=185	=185	=185	=185	=185	=185	=185
3%4.D	.	3%4.f	-o-	0a	-bis	0dd	-bis
=186.	=186	=186.	=186	=186.	=186	=186.	=186
3%4.C	.	3%4.e	.	1r	.	1ee	pa-
.	.	.	.	[1g	pa-	[1cc	.
=187	=187	=187	=187	=187	=187	=187	=187
3%4.G	.	3%4.d	.	2g\]	.	2cc\]	.
.	.	.	.	2f\	.	2b\	.
.	.	.	.	1g	.	2b\	.
.	.	.	.	.	.	2a/	.
=188.	=188	=188.	=188	=188.	=188	=188.	=188
[3%4.Cl	-ra.	[3%4.cl	-ra.	1.e	.	[0ccl	-cem.
.	.	.	.	2f\	.	.	.
=189	=189	=189	=189	=189	=189	=189	=189
3%4.C]	.	3%4.c]	.	0gl	-cem.	0cc]	.
==	==	==	==	==	==	==	==
*-	*-	*-	*-	*-	*-	*-	*-
!!!RDF**kern: l=long note in original notation
!!!RDF**kern: i=editorial accidental
!!!RDF**kern: V=start of tuplet marker
!!!RDF**kern: Z=end of tuplet marker
!!!ENC:	Alejandro Planchart
!!!END:	2014/07/19/
!!!EED:	Alejandro Planchart, Jesse Rodin
!!!EEV:	2014/07/26/
!!!ONB:	Translated from SCORE and edited on 2014/07/26/ by Craig Sapp
!!!SMS: Ed. J. Rodin based on edition by A. Planchart
!!muse2ps: T^@{OPR}^u^@{ONM}{. }@{OTL}^C^@{COM}\n@{SMS}^i2I150v85,85,85,130c160
